deepin/places/folder-music-symbolic.svg

<?xml version="1.0" encoding="iso-8859-1"?>
<!-- Generator: Adobe Illustrator 18.0.0, SVG Export Plug-In . SVG Version: 6.00 Build 0)  -->
<!DOCTYPE svg PUBLIC "-//W3C//DTD SVG 1.1//EN" "http://www.w3.org/Graphics/SVG/1.1/DTD/svg11.dtd">
<svg version="1.1" id="&#x56FE;&#x5C42;_1" xmlns="http://www.w3.org/2000/svg" xmlns:xlink="http://www.w3.org/1999/xlink" x="0px"
	 y="0px" viewBox="0 0 16 16" style="enable-background:new 0 0 16 16;" xml:space="preserve">
<rect x="5.005" y="2" style="fill:#FFFFFF;" width="1" height="6"/>
<path style="fill:#9FA0A0;" d="M13.538,1.911l-7.99-0.872c-0.296-0.032-0.543,0.2-0.543,0.497V3v6v0.149
	c-1-0.234-1.407-0.215-2.166,0.121c-1.272,0.563-1.971,1.782-1.555,2.724c0.417,0.942,1.782,1.249,3.054,0.687
	c1.008-0.446,1.641-1.304,1.657-2.109l0.01-0.004L6.003,9h0.002V3.974l7,0.844v6.331c-1-0.234-1.407-0.215-2.166,0.121
	c-1.272,0.563-1.971,1.782-1.555,2.724c0.417,0.942,1.782,1.249,3.054,0.687c1.008-0.446,1.641-1.304,1.657-2.109l0.01-0.004
	l0.015-10.16C14.02,2.152,13.791,1.938,13.538,1.911z"/>
</svg>

<?xml version="1.0" encoding="UTF-8" standalone="no"?>
<!-- Created with Inkscape (http://www.inkscape.org/) -->

<svg
   xmlns:dc="http://purl.org/dc/elements/1.1/"
   xmlns:cc="http://creativecommons.org/ns#"
   xmlns:rdf="http://www.w3.org/1999/02/22-rdf-syntax-ns#"
   xmlns:svg="http://www.w3.org/2000/svg"
   xmlns="http://www.w3.org/2000/svg"
   xmlns:inkscape="http://www.inkscape.org/namespaces/inkscape"
   version="1.1"
   width="100%"
   height="100%"
   viewBox="0 0 16 16"
   id="图层_1"
   xml:space="preserve"><metadata
     id="metadata11"><rdf:RDF><cc:Work
         rdf:about=""><dc:format>image/svg+xml</dc:format><dc:type
           rdf:resource="http://purl.org/dc/dcmitype/StillImage" /></cc:Work></rdf:RDF></metadata><defs
     id="defs9" /><rect
     width="1"
     height="6"
     x="5.0050001"
     y="2"
     id="rect3"
     style="fill:#ffffff" /><path
     d="M 13.538,1.911 5.548,1.039 C 5.252,1.007 5.005,1.239 5.005,1.536 V 3 9 9.149 C 4.005,8.915 3.598,8.934 2.839,9.27 1.567,9.833 0.868,11.052 1.284,11.994 c 0.417,0.942 1.782,1.249 3.054,0.687 1.008,-0.446 1.641,-1.304 1.657,-2.109 L 6.005,10.568 6.003,9 H 6.005 V 3.974 l 7,0.844 v 6.331 c -1,-0.234 -1.407,-0.215 -2.166,0.121 -1.272,0.563 -1.971,1.782 -1.555,2.724 0.417,0.942 1.782,1.249 3.054,0.687 1.008,-0.446 1.641,-1.304 1.657,-2.109 l 0.01,-0.004 0.015,-10.16 c 0,-0.256 -0.229,-0.47 -0.482,-0.497 z"
     inkscape:connector-curvature="0"
     id="path5"
     style="fill:#9fa0a0" /></svg>
